svg/dismiss.svg

<?xml version="1.0" encoding="utf-8"?>
<!-- Generated by IcoMoon.io -->
<!DOCTYPE svg PUBLIC "-//W3C//DTD SVG 1.1//EN" "http://www.w3.org/Graphics/SVG/1.1/DTD/svg11.dtd">
<svg version="1.1" xmlns="http://www.w3.org/2000/svg" xmlns:xlink="http://www.w3.org/1999/xlink" width="32" height="32" viewBox="0 0 32 32">
<path d="M16 32c-8.836 0-16-7.164-16-16s7.164-16 16-16 16 7.163 16 16c0 8.836-7.164 16-16 16zM4 16c0 2.582 0.832 4.957 2.221 6.916l16.695-16.696c-1.957-1.387-4.334-2.22-6.916-2.22-6.627 0-12 5.373-12 12zM25.779 9.084l-16.695 16.697c1.957 1.387 4.334 2.219 6.916 2.219 6.627 0 12-5.373 12-12 0-2.582-0.832-4.958-2.221-6.916z"></path>
</svg>

<svg xmlns="http://www.w3.org/2000/svg" width="32" height="32" viewBox="0 0 32 32"><path d="M16 32C7.164 32 0 24.836 0 16S7.164 0 16 0s16 7.163 16 16c0 8.836-7.164 16-16 16zM4 16c0 2.582.832 4.957 2.221 6.916L22.916 6.22A11.914 11.914 0 0 0 16 4C9.373 4 4 9.373 4 16zm21.779-6.916L9.084 25.781A11.913 11.913 0 0 0 16 28c6.627 0 12-5.373 12-12 0-2.582-.832-4.958-2.221-6.916z"/></svg>
